src/browser/themes/shared/zen-icons/lin/extension.svg

#filter dumbComments emptyLines substitution
# This Source Code Form is subject to the terms of the Mozilla Public
# License, v. 2.0. If a copy of the MPL was not distributed with this
# file, You can obtain one at http://mozilla.org/MPL/2.0/.
<svg xmlns="http://www.w3.org/2000/svg" height="18" width="18" viewBox="0 0 18 18"><g stroke-linecap="round" stroke-width="1.5" fill="none" stroke="context-fill" stroke-opacity="context-fill-opacity" stroke-linejoin="round" class="nc-icon-wrapper"><path d="M14.75,8.25c.372,0,.716,.118,1,.317v-2.317c0-1.104-.895-2-2-2h-2.317c.198-.284,.317-.627,.317-1,0-.967-.784-1.75-1.75-1.75s-1.75,.783-1.75,1.75c0,.373,.118,.716,.317,1h-2.317c-1.105,0-2,.896-2,2v2.317c-.284-.198-.628-.317-1-.317-.966,0-1.75,.783-1.75,1.75s.784,1.75,1.75,1.75c.372,0,.716-.118,1-.317v2.317c0,1.104,.895,2,2,2h2.317c-.198-.284-.317-.627-.317-1,0-.967,.784-1.75,1.75-1.75s1.75,.783,1.75,1.75c0,.373-.118,.716-.317,1h2.317c1.105,0,2-.896,2-2v-2.317c-.284,.198-.628,.317-1,.317-.966,0-1.75-.783-1.75-1.75s.784-1.75,1.75-1.75Z"></path></g></svg>

#filter dumbComments emptyLines substitution
# This Source Code Form is subject to the terms of the Mozilla Public
# License, v. 2.0. If a copy of the MPL was not distributed with this
# file, You can obtain one at http://mozilla.org/MPL/2.0/.
<svg height="18" width="18" viewBox="0 0 18 18" id="svg1" fill="context-fill" fill-opacity="context-fill-opacity" xmlns="http://www.w3.org/2000/svg" xmlns:svg="http://www.w3.org/2000/svg"><g stroke-linecap="round" stroke-width="1.5" fill="none" stroke="context-fill" stroke-opacity="context-fill-opacity" stroke-linejoin="round" class="nc-icon-wrapper" id="g1"><path id="path1" d="m 14.75,8.25 c 0.372,0 0.716,0.118 1,0.317 V 6.25 c 0,-1.104 -0.895,-2 -2,-2 H 11.433 C 11.631,3.966 11.75,3.623 11.75,3.25 11.75,2.283 10.966,1.5 10,1.5 9.034,1.5 8.25,2.283 8.25,3.25 c 0,0.373 0.118,0.716 0.317,1 H 6.25 c -1.105,0 -2,0.896 -2,2 V 8.567 C 3.966,8.369 3.622,8.25 3.25,8.25 2.284,8.25 1.5,9.033 1.5,10 c 0,0.967 0.784,1.75 1.75,1.75 0.372,0 0.716,-0.118 1,-0.317 v 2.317 c 0,1.104 0.895,2 2,2 H 8.567 C 8.369,15.466 8.25,15.123 8.25,14.75 8.25,13.783 9.034,13 10,13 c 0.966,0 1.75,0.783 1.75,1.75 0,0.373 -0.118,0.716 -0.317,1 h 2.317 c 1.105,0 2,-0.896 2,-2 v -2.317 c -0.284,0.198 -0.628,0.317 -1,0.317 C 13.784,11.75 13,10.967 13,10 13,9.033 13.784,8.25 14.75,8.25 Z"/></g></svg>
